!!!COA:	Josquin des Prez
!!!CDT:	~1450-1521/08/27
!!!OTL@@LAT: In principio erat verbum
!!!OTL2@@LAT: Fuit homo missus
!!!OTL3@@LAT: Et verbum caro factum est
!!!AGN:	Motet
!!!SCT:	NJE 19.8
!!!SCA:	New Josquin Edition 19.8
!!!voices:	4
**kern	**kern	**kern	**kern
*staff4	*staff3	*staff2	*staff1
*Ivox	*Ivox	*Ivox	*Ivox
*I"Bassus	*I"Tenor	*I"Altus	*I"Superius
*I'B	*I'T	*I'A	*I'S
*clefF4	*clefGv2	*clefGv2	*clefG2
*k[b-]	*k[]	*k[]	*k[]
*M2/1	*M2/1	*M2/1	*M2/1
*met(C|)	*met(C|)	*met(C|)	*met(C|)
=1-	=1-	=1-	=1-
0r	0c	0r	0r
=2	=2	=2	=2
0r	1c	0r	0cc
.	[1c	.	.
=3	=3	=3	=3
0r	2c\]	0r	1cc
.	2A/	.	.
.	2A/	.	[1cc
.	2f\	.	.
=4	=4	=4	=4
0r	2e\	0r	2cc\]
.	1f	.	2a/
.	.	.	1a
.	4e\	.	.
.	4d\	.	.
=5	=5	=5	=5
0F	0c	0r	2cc\
.	.	.	2cc\
.	.	.	1cc
=6	=6	=6	=6
1F	0r	0f	0cc
[1F	.	.	.
=7	=7	=7	=7
2F\]	0r	1f	0r
2D\	.	.	.
2D\	.	[1f	.
2B-\	.	.	.
=8	=8	=8	=8
2A\	0r	2f\]	0r
1B-	.	2d\	.
.	.	1d	.
4A\	.	.	.
4G\	.	.	.
=9	=9	=9	=9
[0F	1r	2f\	0r
.	.	2f\	.
.	1c	1f	.
=10	=10	=10	=10
0F]	2c\	0f	1cc
.	2c\	.	.
.	1c	.	2cc\
.	.	.	2cc\
=11	=11	=11	=11
0r	2.A/	0r	2.cc\
.	4F/	.	4a/
.	2F/	.	2a/
.	[2f\	.	4f/
.	.	.	4g/
=12	=12	=12	=12
0r	2f\]	0r	4a/
.	.	.	4b\
.	2e\	.	2.cc\
.	1d	.	.
.	.	.	4b\
.	.	.	4b\
.	.	.	4a/
=13	=13	=13	=13
1r	0c	0r	0cc
1F	.	.	.
=14	=14	=14	=14
2F\	0r	1f	0r
2F\	.	.	.
1F	.	2f\	.
.	.	2f\	.
=15	=15	=15	=15
2.D\	0r	2.f\	0r
4BB-/	.	4d\	.
2BB-/	.	2d\	.
[2B-\	.	4B-i\	.
.	.	4c\	.
=16	=16	=16	=16
2B-\]	0r	4d\	0r
.	.	4e\	.
2A\	.	2.f\	.
1G	.	.	.
.	.	4e\	.
.	.	4e\	.
.	.	4d\	.
=17	=17	=17	=17
0F	1r	1f	0r
.	1f	1r	.
=18	=18	=18	=18
0r	2f\	0r	1ff
.	2f\	.	.
.	1f	.	2ff\
.	.	.	2ff\
=19	=19	=19	=19
0r	2d\	0r	1ff
.	2.a\	.	.
.	.	.	2ee\
.	4g\	.	.
.	4f\	.	[2ff\
.	4e\	.	.
=20	=20	=20	=20
0r	2f\	0r	4ff\]
.	.	.	4ee\
.	2g\	.	1dd
.	1e	.	.
.	.	.	2cc#i\
=21	=21	=21	=21
1r	1d	0r	0dd
1B-	2r	.	.
.	2d\	.	.
=22	=22	=22	=22
2B-\	2d\	1f	0r
2B-\	2d\	.	.
1B-	2.d\	2f\	.
.	.	2f\	.
.	4c\	.	.
=23	=23	=23	=23
2F\	2d\	1f	0r
2.A\	2.c\	.	.
.	.	2e\	.
4G\	4B-i\	.	.
4F\	4A/	[2f\	.
4E\	4G/	.	.
=24	=24	=24	=24
2F\	2A/	4f\]	0r
.	.	4e\	.
2G\	2B-i\	1d	.
1E	1G	.	.
.	.	2c#i\	.
=25	=25	=25	=25
[0D	1A	[0d	1r
.	1r	.	1ff
=26	=26	=26	=26
0D]	1f	0d]	1ff
.	1f	.	2dd\
.	.	.	[2ff\
=27	=27	=27	=27
0r	2d\	0r	4ff\]
.	.	.	4ee\
.	2.f\	.	2dd\
.	.	.	2cc\
.	4e\	.	.
.	2d\	.	2dd\
=28	=28	=28	=28
0r	2c\	0r	2ee\
.	2d\	.	4a/
.	.	.	4b\
.	2e\	.	4cc\
.	.	.	4dd\
.	4A/	.	[2ee\
.	4B\	.	.
=29	=29	=29	=29
0r	4c\	0r	2ee\]
.	4d\	.	.
.	4e\	.	2cc\
.	4f\	.	.
.	2g\	.	1b
.	4a\	.	.
.	4g#i\	.	.
=30	=30	=30	=30
0r	0a	1r	[0a
.	.	[1f	.
=31	=31	=31	=31
1.F	0r	2f\]	0a]
.	.	2f\	.
.	.	2f\	.
2F\	.	2f\	.
=32	=32	=32	=32
2F\	0r	1f	0r
2F\	.	.	.
1F	.	1c	.
=33	=33	=33	=33
2C/	0r	4e\	0r
.	.	4d\	.
2.c\	.	4e\	.
.	.	4f\	.
.	.	2g\	.
4B-\	.	.	.
4A\	.	[2a\	.
4G\	.	.	.
=34	=34	=34	=34
2.F\	0r	4a\]	0r
.	.	4g\	.
.	.	1f	.
4A\	.	.	.
1G	.	.	.
.	.	2e\	.
=35	=35	=35	=35
1F	0r	0f	0r
2r	.	.	.
2F\	.	.	.
=36	=36	=36	=36
2G\	0r	1r	0r
2G\	.	.	.
1A	.	1c	.
=37	=37	=37	=37
1D	1f	2d\	0r
.	.	2d\	.
1r	2g\	1e	.
.	2g\	.	.
=38	=38	=38	=38
2r	1a	1A	1cc
2A\	.	.	.
2F\	1d	1r	2dd\
2G\	.	.	2dd\
=39	=39	=39	=39
1E	1r	1c	1ee
1D	1f	2d\	1a
.	.	2d\	.
=40	=40	=40	=40
1r	2g\	1e	1r
.	2g\	.	.
2r	1a	1A	1cc
2A\	.	.	.
=41	=41	=41	=41
2F\	2d\	1r	2dd\
2G\	2d\	.	2dd\
1E	2g\	1c	1ee
.	2e\	.	.
=42	=42	=42	=42
1D	2.f\	2d\	1a
.	.	2d\	.
.	4e\	.	.
[1A	1c	1e	[1cc
=43	=43	=43	=43
2A\]	2r	2A/	2cc\]
2A\	2c\	1a	2cc\
1A	2c\	.	2cc\
.	2c\	2a\	[2ee\
=44	=44	=44	=44
2B-\	1d	2f\	4ee\]
.	.	.	4dd\
2G\	.	2g\	1dd
1A	1A	1e	.
.	.	.	2cc#i\
=45	=45	=45	=45
1D	1r	0d	0dd
1r	1d	.	.
=46	=46	=46	=46
1D	1.f	0r	0r
[1F	.	.	.
.	2f\	.	.
=47	=47	=47	=47
2F\]	2f\	0r	0r
2F\	2f\	.	.
2F\	1f	.	.
2F\	.	.	.
=48	=48	=48	=48
1F	2.c\	0r	0r
.	4d\	.	.
1C	4e\	.	.
.	4f\	.	.
.	[2g\	.	.
=49	=49	=49	=49
2E\	2g\]	0r	0r
2F\	1f	.	.
1G	.	.	.
.	2e\	.	.
=50	=50	=50	=50
1F	1f	0r	1r
1F	1c	.	1a
=51	=51	=51	=51
2F\	2c\	1r	2a/
2F\	2c\	.	2a/
1F	1c	1f	1a
=52	=52	=52	=52
1D	1d	2f\	1a
.	.	2f\	.
1D	1d	1f	1a
=53	=53	=53	=53
1.G	1.B	1d	1.b
.	.	1d	.
2G\	2B\	.	2b\
=54	=54	=54	=54
0F	2.c\	1.f	1a
.	4B\	.	.
.	2c\	.	1r
.	[2A/	2f\	.
=55	=55	=55	=55
0r	2A/]	1f	1cc
.	2F/	.	.
.	1F	1f	1cc
=56	=56	=56	=56
0r	0r	1f	1cc
.	.	1f	[1dd
=57	=57	=57	=57
0r	1r	1.g	2dd\]
.	.	.	2dd\
.	1c	.	1ee
.	.	2g\	.
=58	=58	=58	=58
*k[]	*	*	*
1F	1c	1a	1.cc
1F	1c	[1f	.
.	.	.	2a/
=59	=59	=59	=59
1F	1.d	2f\]	1a
.	.	2d\	.
[1G	.	1d	1r
.	2d\	.	.
=60	=60	=60	=60
2G\]	1e	0r	0r
2G\	.	.	.
1A	[1c	.	.
=61	=61	=61	=61
1.F	2c\]	0r	0r
.	2A/	.	.
.	1A	.	.
2D\	.	.	.
=62	=62	=62	=62
0D	2r	1f	1r
.	2d\	.	.
.	2d\	[1f	1dd
.	2d\	.	.
=63	=63	=63	=63
2r	2.d\	2f\]	1.dd
2B-i\	.	2f\	.
.	4e\	.	.
2B-i\	2f\	1d	.
2B-i\	[2g\	.	2dd\
=64	=64	=64	=64
1G	4g\]	1.e	1b
.	4f\	.	.
.	4e\	.	.
.	4d\	.	.
[1A	1c	.	[1cc
.	.	2c\	.
=65	=65	=65	=65
2A\]	1r	1c	2cc\]
2F\	.	.	2a/
1F	1c	2r	1a
.	.	2f\	.
=66	=66	=66	=66
2r	2d\	2f\	1r
2A\	2.c\	2f\	.
2A\	.	2e\	1cc
.	4B-i\	.	.
2A\	4A/	[2f\	.
.	4G/	.	.
=67	=67	=67	=67
2F\	2A/	4f\]	1dd
.	.	4e\	.
2G\	2B-i\	1d	.
1E	1G	.	1ee
.	.	2c#i\	.
=68	=68	=68	=68
0D	1A	0d	1ff
.	1r	.	[1ff
=69	=69	=69	=69
1r	2r	1f	2ff\]
.	2d\	.	2dd\
1B-i	2d\	[1f	1dd
.	2d\	.	.
=70	=70	=70	=70
1.B-i	2.d\	2f\]	2r
.	.	2f\	2dd\
.	4e\	.	.
.	2f\	1d	2dd\
2B-i\	[2g\	.	2dd\
=71	=71	=71	=71
1G	4g\]	1.e	1b
.	4f\	.	.
.	4e\	.	.
.	4d\	.	.
[1A	1c	.	[1cc
.	.	2c\	.
=72	=72	=72	=72
2A\]	1r	1c	2cc\]
2F\	.	.	2a/
1F	1c	2r	1a
.	.	2f\	.
=73	=73	=73	=73
2r	2d\	2f\	1r
2A\	2.c\	2f\	.
2A\	.	2e\	1cc
.	4B-i\	.	.
2A\	4A/	[2f\	.
.	4G/	.	.
=74	=74	=74	=74
2F\	2A/	4f\]	1dd
.	.	4e\	.
2G\	2B-i\	1d	.
1E	1G	.	1ee
.	.	2c#i\	.
=75	=75	=75	=75
2D\	2A/	[0dl	2.ff\
2D\	2f\	.	.
.	.	.	4ee\
2D\	2f\	.	4dd\
.	.	.	4cc\
2D\	2f\	.	[2dd\
=76	=76	=76	=76
1G	1g	0d_	4dd\]
.	.	.	4cc\
.	.	.	4b-i\
.	.	.	4a/
1G	1g	.	1b-i
=77	=77	=77	=77
0Dl	0fl	0d]	0al
!!LO:LB:i:g=z
=78||	=78||	=78||	=78||
*>B	*>B	*>B	*>B
!!section: Secunda pars: Fuit homo missus
!!!OMD: Secunda pars: Fuit homo missus
*M2/1	*M2/1	*M2/1	*M2/1
*met(C|)	*met(C|)	*met(C|)	*met(C|)
1.F	0r	1r	0r
.	.	[1f	.
2F\	.	.	.
=79	=79	=79	=79
1F	0r	2f\]	0r
.	.	2f\	.
1D	.	1f	.
=80	=80	=80	=80
1.F	0r	2d\	0r
.	.	2c\	.
.	.	2d\	.
2F\	.	[2f\	.
=81	=81	=81	=81
2.A\	0r	2f\]	0r
.	.	4e\	.
4B-i\	.	4d\	.
1G	.	1e	.
=82	=82	=82	=82
0F	1.c	0f	1r
.	.	.	[1cc
.	2c\	.	.
=83	=83	=83	=83
0r	1c	0r	2cc\]
.	.	.	2cc\
.	1A	.	1cc
=84	=84	=84	=84
0r	1.c	0r	2a/
.	.	.	2g/
.	.	.	2a/
.	2c\	.	[2cc\
=85	=85	=85	=85
0r	2.e\	0r	2cc\]
.	.	.	4b\
.	4f\	.	4a/
.	1d	.	1b
=86	=86	=86	=86
1.A	1c	1r	0cc
.	2c\	[1f	.
2A\	2c\	.	.
=87	=87	=87	=87
1A	1c	2f\]	0r
.	.	2f\	.
1D	1d	1f	.
=88	=88	=88	=88
1A	1c	2e\	0r
.	.	2f\	.
2G\	2B\	2e\	.
[2A\	[2c\	[2f\	.
=89	=89	=89	=89
4A\]	4c\]	4f\]	0r
4G\	4B\	4e\	.
2F\	1A	1d	.
1E	.	.	.
.	2G/	2c#i\	.
=90	=90	=90	=90
1D	1A	1d	1r
2r	[1a	2r	[1ff
[2D\	.	[2d\	.
=91	=91	=91	=91
2D\]	2a\]	2d\]	2ff\]
2D\	2a\	2d\	2ff\
1D	1a	1d	1ff
=92	=92	=92	=92
2A\	1a	2c\	2ee\
2D\	.	2d\	2ff\
2A\	1a	2A/	2ee\
2D\	.	[2a\	[2ff\
=93	=93	=93	=93
2.F\	2a\	4a\]	4ff\]
.	.	4g\	4ee\
.	2a\	2f\	1dd
4G\	.	.	.
1A	1a	1e	.
.	.	.	2cc#i\
=94	=94	=94	=94
[0D	1f	0d	[0dd
.	2r	.	.
.	2f\	.	.
=95	=95	=95	=95
0D_	1f	1r	0dd]
.	1d	1f	.
=96	=96	=96	=96
0D]	2r	1f	1r
.	2f\	.	.
.	1f	1d	1ff
=97	=97	=97	=97
1r	0d	1d	1ff
1D	.	[1f	1dd
=98	=98	=98	=98
1F	1A	2f\]	1cc
.	.	2f\	.
1BB-i	[1B-	2f\	[1dd
.	.	2f\	.
=99	=99	=99	=99
2r	2B-\]	1f	2dd\]
2F\	2A/	.	2cc\
2D\	2F/	1r	2.dd\
2BB-i/	2B-i\	.	.
.	.	.	4ee\
=100	=100	=100	=100
2.D\	1A	1f	1ff
4E\	.	.	.
1F	2r	[1f	2r
.	2A/	.	2cc\
=101	=101	=101	=101
2r	2B-i\	2f\]	2dd\
2F\	2A/	2f\	2cc\
2D\	2F/	2f\	2.dd\
2BB-i/	2B-i\	2f\	.
.	.	.	4ee\
=102	=102	=102	=102
2.D\	1A	1f	1ff
4E\	.	.	.
1F	2r	2f\	1cc
.	2A/	2f\	.
=103	=103	=103	=103
2r	1B-i	1f	1dd
2BB-i/	.	.	.
1B-i	1B-i	1f	1dd
=104	=104	=104	=104
1A	1F	1f	2cc\
.	.	.	2a/
1G	2r	2d\	2b-i\
.	2B-i\	2e\	2b-i\
=105	=105	=105	=105
1F	1c	1f	0a
2.D\	1d	2r	.
.	.	2f\	.
4E\	.	.	.
=106	=106	=106	=106
1F	2A/	1f	1r
.	2F/	.	.
2r	1B-i	1f	1dd
2BB-i/	.	.	.
=107	=107	=107	=107
1F	1A	1f	1cc
1BB-i	2r	1f	1dd
.	[2d\	.	.
=108	=108	=108	=108
1.B-	4d\]	1f	2r
.	4c\	.	.
.	4B-i\	.	1dd
.	4A/	.	.
.	2B-i\	2f\	.
2A\	2c\	[2f\	2cc\
=109	=109	=109	=109
2F\	2A/	4f\]	1dd
.	.	4e\	.
2G\	2B-i\	2.d\	.
1E	1G	.	1ee
.	.	4c#i\	.
.	.	4c#i\	.
.	.	4B\	.
=110	=110	=110	=110
[0D	0A	[0d	2.ff\
.	.	.	4ee\
.	.	.	4dd\
.	.	.	4cc\
.	.	.	[2dd\
=111	=111	=111	=111
0D_	1r	0d]	2dd\]
.	.	.	4cc\
.	.	.	4b-i\
.	1f	.	1a
=112	=112	=112	=112
0D]	1f	0r	1r
.	[1f	.	1a
=113	=113	=113	=113
0r	2f\]	0r	1.cc
.	4e\	.	.
.	4d\	.	.
.	2e\	.	.
.	[2g\	.	2b\
=114	=114	=114	=114
0r	4g\]	1r	1a
.	4f\	.	.
.	1f	.	.
.	.	1c	1g
.	2e\	.	.
=115	=115	=115	=115
1r	0f	1d	0f
1F	.	[1f	.
=116	=116	=116	=116
1.c	0r	2f\]	0r
.	.	4e\	.
.	.	4d\	.
.	.	2e\	.
2B\	.	[2g\	.
=117	=117	=117	=117
1A	0r	4g\]	0r
.	.	4f\	.
.	.	1f	.
1G	.	.	.
.	.	2e\	.
=118	=118	=118	=118
0F	0r	1f	0r
.	.	[1c	.
=119	=119	=119	=119
0F	1r	1c]	0a
.	1f	1c	.
=120	=120	=120	=120
1D	1f	1.d	1a
[1G	[1g	.	[1b
.	.	2d\	.
=121	=121	=121	=121
2G\]	2g\]	2d\	2b\]
2G\	2g\	2d\	2b\
2G\	2g\	1e	2b\
2G\	2g\	.	2b\
=122	=122	=122	=122
1A	1e	1c	1cc
1D	1f	1d	1a
=123	=123	=123	=123
1.G	1.g	1d	1.b
.	.	1e	.
2G\	2g\	.	2b\
=124	=124	=124	=124
1A	2e\	1c	1cc
.	2.f\	.	.
1D	.	[1d	1a
.	4e\	.	.
.	4d\	.	.
.	4c\	.	.
=125	=125	=125	=125
1.G	1B	2d\]	1.b
.	.	2d\	.
.	1B	1e	.
2G\	.	.	2b\
=126	=126	=126	=126
1A	1A	1c	1cc
1F	2r	2c\	1a
.	2f\	2c\	.
=127	=127	=127	=127
2F\	2f\	0d	2a/
2D\	2f\	.	2a/
[1G	[1g	.	[1b
=128	=128	=128	=128
1G]	1g]	1e	1b]
1A	1e	1c	1cc
=129	=129	=129	=129
1F	1f	1c	1a
1D	1f	[1d	1a
=130	=130	=130	=130
1.G	1.g	2d\]	1.b
.	.	2d\	.
.	.	1e	.
2G\	2g\	.	2b\
=131	=131	=131	=131
1A	1e	1c	1cc
1F	1f	1c	1a
=132	=132	=132	=132
1D	1f	1.d	1a
[1G	[1g	.	[1b
.	.	2d\	.
=133	=133	=133	=133
2G\]	2g\]	1e	2b\]
2G\	2g\	.	2b\
1A	1e	2c\	1cc
.	.	2c\	.
=134	=134	=134	=134
2F\	2f\	0d	2a/
2D\	2f\	.	2a/
[1G	[1g	.	[1b
=135	=135	=135	=135
1G]	1g]	1e	1b]
1A	2e\	1c	1cc
.	[2a\	.	.
=136	=136	=136	=136
1F	4a\]	1c	1a
.	4g\	.	.
.	4f\	.	.
.	4e\	.	.
1F	[1f	[1c	1a
=137	=137	=137	=137
1.F	2f\]	2c\]	1.a
.	4e\	2A/	.
.	4d\	.	.
.	2c\	1A	.
2D\	2d\	.	2f/
=138	=138	=138	=138
0D	2A/	1r	1f
.	1B-	.	.
.	.	1d	1r
.	4A/	.	.
.	4G/	.	.
=139	=139	=139	=139
0r	1F	2.f\	1a
.	.	4g\	.
.	1r	4a\	2.cc\
.	.	4b\	.
.	.	[2cc\	.
.	.	.	4dd\
=140	=140	=140	=140
0r	0r	2cc\]	2ee\
.	.	2a\	2.ff\
.	.	1g	.
.	.	.	4ee\
.	.	.	4ee\
.	.	.	4dd\
=141	=141	=141	=141
1r	0r	0f	0ff
1D	.	.	.
=142	=142	=142	=142
2.F\	1A	0r	0r
4G\	.	.	.
4A\	2.c\	.	.
4B\	.	.	.
[2c\	.	.	.
.	4d\	.	.
=143	=143	=143	=143
2c\]	2e\	0r	0r
2A\	2.f\	.	.
1G	.	.	.
.	4e\	.	.
.	4e\	.	.
.	4d\	.	.
=144	=144	=144	=144
0F	2f\	0r	1r
.	2c\	.	.
.	1c	.	1cc
=145	=145	=145	=145
2r	1.A	1r	1cc
2F\	.	.	.
1F	.	1f	1a
.	4B\	.	.
.	4c\	.	.
=146	=146	=146	=146
1D	0d	1f	1r
1D	.	1d	1a
=147	=147	=147	=147
1G	2r	1d	1b
.	2G/	.	.
1F	2A/	[1f	1a
.	2A/	.	.
=148	=148	=148	=148
1.BB-i	1.B-	2f\]	1.dd
.	.	2f\	.
.	.	2f\	.
2BB-i/	2B-i\	2f\	2dd\
=149	=149	=149	=149
1F	1A	1f	1cc
1r	1r	1r	1r
=150	=150	=150	=150
3%4FV	3%4cV	3%4fV	3%4aV
3%2FZ	3%2cZ	3%2fZ	3%2aZ
=151	=151	=151	=151
3%2FV	3%2cV	3%2fV	3%2aV
3%4FZ	3%4cZ	3%4fZ	3%4aZ
=152	=152	=152	=152
3%4CV	3%4cV	3%4eV	3%2gV
.	.	.	3%2.cc
3%2FZ	3%2AZ	3%2cZ	.
.	.	.	3b\Z
=153	=153	=153	=153
3%2FV	3%2AV	3%2dV	3%2aV
3%4GZ	3%4B-iZ	3%4eZ	3%4gZ
=154	=154	=154	=154
[0D	0A	[0d	0f
=155	=155	=155	=155
0D]	1r	0d]	0r
.	1d	.	.
=156	=156	=156	=156
0r	1.f	0r	1a
.	.	.	[1cc
.	2f\	.	.
=157	=157	=157	=157
0r	2.f\	0r	2cc\]
.	.	.	2cc\
.	4g\	.	.
.	4a\	.	2.cc\
.	4b\	.	.
.	[2cc\	.	.
.	.	.	4dd\
=158	=158	=158	=158
0r	2cc\]	0r	2ee\
.	2a\	.	1ff
.	1g	.	.
.	.	.	2ee\
=159	=159	=159	=159
1r	0f	0r	0ff
1D	.	.	.
=160	=160	=160	=160
1.F	0r	1A	0r
.	.	[1c	.
2F\	.	.	.
=161	=161	=161	=161
2.F\	0r	2c\]	0r
.	.	2c\	.
4G\	.	.	.
4A\	.	2.c\	.
4B\	.	.	.
[2c\	.	.	.
.	.	4d\	.
=162	=162	=162	=162
2c\]	0r	2e\	0r
2A\	.	1f	.
1G	.	.	.
.	.	2e\	.
=163	=163	=163	=163
1F	1r	1f	1r
1F	1f	1f	1cc
=164	=164	=164	=164
2B-i\	2f\	2d\	2dd\
2B-i\	2f\	2d\	2dd\
1B-i	1g	1d	1dd
=165	=165	=165	=165
1A	1a	2e\	2cc\
.	.	2f\	2cc\
1A	1a	2e\	2cc\
.	.	2c\	[2ee\
=166	=166	=166	=166
2B-i\	2f\	1d	4ee\]
.	.	.	4dd\
2G\	2g\	.	2.dd\
1A	1e	1A	.
.	.	.	4cc#i\
.	.	.	4cc#i\
.	.	.	4b\
=167	=167	=167	=167
0D	0d	1r	1dd
.	.	1f	1r
=168	=168	=168	=168
1.F	1r	1f	1.a
.	[1c	[1f	.
2F\	.	.	2a/
=169	=169	=169	=169
1F	2c\]	1f]	1a
.	2c\	.	.
1C	1c	1e	1g
=170	=170	=170	=170
1.F	1A	1.f	1.a
.	2A/	.	.
2F\	2A/	2f\	2a/
=171	=171	=171	=171
2F\	2c\	2f\	2a/
2F\	2c\	2f\	2a/
1C	1c	1e	1g
=172	=172	=172	=172
0F	1c	1f	0a
.	1c	1r	.
=173	=173	=173	=173
0r	1d	1f	0r
.	1e	1g	.
=174	=174	=174	=174
0r	2A/	1a	0r
.	1d	.	.
.	.	2d\	.
.	2d\	[2a\	.
=175	=175	=175	=175
0r	1d	2a\]	0r
.	.	2a\	.
.	2c\	1a	.
.	2A/	.	.
=176	=176	=176	=176
0r	2B\	2g\	0r
.	2c\	2e\	.
.	2d\	2f\	.
.	2G/	2g\	.
=177	=177	=177	=177
0r	1.d	2a\	0r
.	.	2d\	.
.	.	1a	.
.	2d\	.	.
=178	=178	=178	=178
0r	1d	2a\	0r
.	.	2a\	.
.	1r	1a	.
=179	=179	=179	=179
3%4DV	3%4dV	3%4fV	3%4aV
3%2DZ	3%2dZ	3%2fZ	3%2aZ
=180	=180	=180	=180
3%4DV	3%4dV	3%4fV	3%4aV
3%2GZ	3%2dZ	3%2dZ	3%2bZ
=181	=181	=181	=181
3%2GV	3%2BV	3%2dV	3%2bV
3%2.F	3%2.c	3%2.f	3%2.a
3F\Z	3c\Z	3f\Z	3a/Z
=182	=182	=182	=182
3%2FV	3%2cV	3%2fV	3%2aV
3%4B-Z	3%4dZ	3%4fZ	3%4b-iZ
=183	=183	=183	=183
0F	1c	1f	0a
.	1r	1r	.
=184	=184	=184	=184
0r	0r	1f	1r
.	.	1f	1cc
=185	=185	=185	=185
0r	0r	2e\	1cc
.	.	2c\	.
.	.	2d\	2b\
.	.	2e\	2g/
=186	=186	=186	=186
1F	1r	0f	2.a/
.	.	.	4b\
1F	1c	.	1cc
=187	=187	=187	=187
2E\	1c	0r	0r
2C/	.	.	.
2D\	2B\	.	.
2E\	2G/	.	.
=188	=188	=188	=188
0F	2.A/	0r	0r
.	4B\	.	.
.	1c	.	.
=189	=189	=189	=189
3%2DV	3%2dV	3%2fV	3%2aV
3%2D	3%2d	3%2f	3%2a
3%2DZ	3%2dZ	3%2fZ	3%2aZ
=190	=190	=190	=190
3%2AV	3%2cV	3%2eV	3%2aV
3%2F	3%2A	3%2f	3%2a
3%2B-iZ	3%2B-Z	3%2dZ	3%2gZ
=191	=191	=191	=191
3%2AV	3%2FV	3%2cV	3%2fV
3%4GZ	3%4B-iZ	3%2.d	3%4gZ
.	.	3e\Z	.
=192	=192	=192	=192
0F	0A	0f	0a
=193	=193	=193	=193
0r	0r	1f	1r
.	.	2f\	1cc
.	.	2f\	.
=194	=194	=194	=194
0r	0r	2e\	2cc\
.	.	2f\	2cc\
.	.	2d\	2b\
.	.	2c\	2cc\
=195	=195	=195	=195
0r	0r	2d\	2f/
.	.	2.f\	2a/
.	.	.	1g
.	.	4e\	.
.	.	4e\	.
.	.	4d\	.
=196	=196	=196	=196
1F	1r	0f	2.f/
.	.	.	4g/
2F\	1c	.	1a
2F\	.	.	.
=197	=197	=197	=197
2E\	2c\	0r	0r
2F\	2c\	.	.
2D\	2B\	.	.
2C/	2c\	.	.
=198	=198	=198	=198
2D\	2F/	0r	0r
1F	2A/	.	.
.	1G	.	.
2E\	.	.	.
=199	=199	=199	=199
1F	1F	0f	0r
[1BB-i	1r	.	.
=200	=200	=200	=200
1BB-]	1.B-	1f	1.dd
1BB-i	.	[1f	.
.	2B-i\	.	2dd\
=201	=201	=201	=201
1B-	1B-i	1f]	1dd
2A\	2F/	1f	2cc\
2B-\	[2f\	.	2dd\
=202	=202	=202	=202
2A\	4f\]	1f	2cc\
.	4e\	.	.
1B-i	4d\	.	1dd
.	4c\	.	.
.	1B-i	1f	.
4A\	.	.	4cc\
4G\	.	.	4b-i\
=203	=203	=203	=203
1F	1c	0f	1a
[1D	1d	.	1r
=204	=204	=204	=204
1D]	1.f	[0dl	1.a
1D	.	.	.
.	2f\	.	2a/
=205	=205	=205	=205
1G	4B-i\	0d_	1b-i
.	4c\	.	.
.	4d\	.	.
.	4e\	.	.
2F\	2f\	.	2a/
2G\	2B-i\	.	2b-i\
=206	=206	=206	=206
2F\	4f\	0d_	2a/
.	4e\	.	.
1G	4d\	.	1b-i
.	4c\	.	.
.	2B-i\	.	.
4F\	[2d\	.	4a/
4E\	.	.	4g/
=207	=207	=207	=207
[0Dl	4d\]	0d_	[0fl
.	4c\	.	.
.	2A/	.	.
.	1B-i	.	.
=208	=208	=208	=208
0D]	0Al	0d]	0f]
!!LO:LB:i:g=z
=209||	=209||	=209||	=209||
*>C	*>C	*>C	*>C
!!section: Tertia pars: Et verbum caro factum est
!!!OMD: Tertia pars: Et verbum caro factum est
*M2/1	*M2/1	*M2/1	*M2/1
*met(C|)	*met(C|)	*met(C|)	*met(C|)
*k[b-]	*	*	*
0D	0d	0f	0a
=210	=210	=210	=210
0D	0d	0f	0a
=211	=211	=211	=211
0G	0B	0d	0b
=212	=212	=212	=212
0D	0d	0f	0a
=213	=213	=213	=213
0F	0A	0f	0a
=214	=214	=214	=214
[0C	[0c	[0e	[0g
=215	=215	=215	=215
1C]	1c]	1e]	1g]
1C	1c	1e	1g
=216	=216	=216	=216
0F	1.c	1f	0a
.	.	2r	.
.	2A/	2c\	.
=217	=217	=217	=217
1r	2B-i\	2d\	0r
.	2A/	2e\	.
2r	1F	1f	.
2F\	.	.	.
=218	=218	=218	=218
2G\	0r	2.e\	0r
2A\	.	.	.
.	.	4c\	.
2B-\	.	2d\	.
2A\	.	[2f\	.
=219	=219	=219	=219
1F	0r	4f\]	0r
.	.	4e\	.
.	.	4d\	.
.	.	4c\	.
1G	.	1B	.
=220	=220	=220	=220
0A	0r	0A	1r
.	.	.	2r
.	.	.	2cc\
=221	=221	=221	=221
0r	1r	0r	2dd\
.	.	.	2ee\
.	2r	.	1ff
.	2f\	.	.
=222	=222	=222	=222
0r	2g\	0r	2.ee\
.	2a\	.	.
.	.	.	4cc\
.	2b-i\	.	2dd\
.	2a\	.	[2ff\
=223	=223	=223	=223
*	*k[b-]	*	*
0r	1f	0r	4ff\]
.	.	.	4ee\
.	.	.	4dd\
.	.	.	4cc\
.	1g	.	1b
=224	=224	=224	=224
0r	0a	1r	0a
.	.	1f	.
=225	=225	=225	=225
1D	0r	1.f	0r
[1B-	.	.	.
.	.	2e\	.
=226	=226	=226	=226
2B-\]	0r	2d\	0r
2A\	.	2c\	.
2G\	.	2d\	.
2F\	.	[2f\	.
=227	=227	=227	=227
2A\	0r	2f\]	0r
2B-\	.	4e\	.
.	.	4d\	.
1G	.	1e	.
=228	=228	=228	=228
0F	1r	0f	0r
.	1f	.	.
=229	=229	=229	=229
0r	1.f	0r	1ff
.	.	.	[1ff
.	2e\	.	.
=230	=230	=230	=230
0r	2d\	0r	2ff\]
.	2c\	.	2ee\
.	2d\	.	2dd\
.	[2f\	.	2cc\
=231	=231	=231	=231
0r	2f\]	0r	2a/
.	4e\	.	2b-i\
.	4d\	.	.
.	1e	.	1g
=232	=232	=232	=232
1r	1f	0r	1f
1F	1f	.	2r
.	.	.	2a/
=233	=233	=233	=233
2B-\	2f\	1d	2dd\
2B-\	2f\	.	2dd\
1B-	1g	2d\	1dd
.	.	2d\	.
=234	=234	=234	=234
1A	1a	1e	1cc
2F\	2r	1f	2cc\
2F\	[2f\	.	2cc\
=235	=235	=235	=235
1.B-	2f\]	2d\	1.dd
.	2f\	2d\	.
.	2f\	2d\	.
2B-\	2g\	2d\	2dd\
=236	=236	=236	=236
1A	1a	1e	2cc\
.	.	.	4a/
.	.	.	4b\
1A	1a	1c	4cc\
.	.	.	4dd\
.	.	.	[2ee\
=237	=237	=237	=237
2B-\	2f\	1d	4ee\]
.	.	.	4dd\
2G\	2g\	.	1dd
1A	1e	1A	.
.	.	.	2cc#i\
=238	=238	=238	=238
2D\	[0d	2.f\	0dd
4d\	.	.	.
4c\	.	4e\	.
4B-\	.	4d\	.
4A\	.	4c\	.
4B-\	.	4d\	.
4A\	.	4c\	.
=239	=239	=239	=239
4G\	0d_	4B-i\	0r
4F\	.	4A/	.
1G	.	1B-i	.
4F\	.	4A/	.
4E\	.	4G/	.
=240	=240	=240	=240
0D	0d]	2B-i\	0ff
.	.	1A	.
.	.	2F/	.
=241	=241	=241	=241
0r	1r	2.B-i\	1dd
.	.	4A/	.
.	[1f	1F	1cc
=242	=242	=242	=242
1.D	1f]	0r	1dd
.	1f	.	[1ff
2D\	.	.	.
=243	=243	=243	=243
1D	1f	0r	2ff\]
.	.	.	4ee\
.	.	.	4dd\
1C	1g	.	2ee\
.	.	.	2ee\
=244	=244	=244	=244
0F	0a	0f	2.ff\
.	.	.	4ee\
.	.	.	4dd\
.	.	.	4cc\
.	.	.	[2cc\
=245	=245	=245	=245
0r	1r	1d	2cc\]
.	.	.	2b\
.	1A	1c	1cc
=246	=246	=246	=246
1.D	2A/	1d	1.f
.	1B-	.	.
.	.	[1f	.
2D\	4A/	.	2f/
.	4G/	.	.
=247	=247	=247	=247
1D	1F	2f\]	1f
.	.	4e\	.
.	.	4d\	.
1C	1c	2e\	1g
.	.	2e\	.
=248	=248	=248	=248
1F	1A	0f	1a
2r	2r	.	2r
2F\	2A/	.	2cc\
=249	=249	=249	=249
2F\	2A/	1r	2cc\
2F\	2A/	.	2cc\
1BB-	1B-	1f	1dd
=250	=250	=250	=250
1F	1A	1f	1cc
2r	2r	1f	2r
2F\	2A/	.	2cc\
=251	=251	=251	=251
2F\	2A/	0f	2cc\
2F\	2A/	.	2cc\
1BB-	1B-	.	1dd
=252	=252	=252	=252
0Fl	0Al	0fl	0ccl
==	==	==	==
*-	*-	*-	*-
!!!RDF**kern: l=long note in original notation
!!!RDF**kern: i=editorial accidental
!!!ENC:	Jesse Rodin; Victoria Chang 2011/05/21
!!!END:	2011/05/21/
!!!EED:	Jesse Rodin
!!!EEV:	2011/11/03/
!!attribution-level@Jos: 3 (tricky)
!!!ONB:	Translated from MusicXML and edited on 2011/11/03/ by Craig Sapp
!!muse2ps: u^(2) @{OTL2} (3) @{OTL3}^C^@{COA}?\n@{SCT}^i2I150v90,90,90,150Q16
